X:1
T:That's What it's Like in the Navy
M:4/4
L:1/4
K:C
 G,| C C C D| E2 G G| F E F D| C3| C| F F F F| A c c A| G A G E| D3|\
 G,| C C C D| E D C B,| A, A, A, A,| F3| D| G2 G3/2 G/2| G2 G3/2 F/2|\
 E C- C2-| C3||
